symbols/web/forward_to_inbox/materialsymbolsrounded/forward_to_inbox_wght700grad200fill1_24px.svg

<svg xmlns="http://www.w3.org/2000/svg" height="24" width="24"><path d="M4.25 21.15q-1.425 0-2.412-1-.988-1-.988-2.4V6.25q0-1.4.988-2.4.987-1 2.412-1h15.5q1.425 0 2.413 1 .987 1 .987 2.4v8.9q-.775-.5-1.675-.775T19.65 14.1q-2.7 0-4.575 1.85T13.2 20.5v.65ZM12 11.3 6.175 7.525q-.6-.4-1.263-.062-.662.337-.662 1.112 0 .375.162.637.163.263.413.413l6.25 4.075q.425.275.925.275t.925-.275l6.25-4.075q.225-.15.4-.413.175-.262.175-.637 0-.725-.637-1.1-.638-.375-1.288.05Zm6.875 9.85h-2.3q-.575 0-.975-.413-.4-.412-.4-.962 0-.575.4-.975t.975-.4h2.3l-.3-.275q-.4-.4-.387-.975.012-.575.412-.975.425-.4.975-.388.55.013.95.413l2.4 2.375q.475.475.475 1.188 0 .712-.475 1.187l-2.4 2.375q-.4.4-.95.413-.55.012-.975-.413-.4-.4-.4-.95 0-.55.4-.975Z"/></svg>

<svg xmlns="http://www.w3.org/2000/svg" height="24" width="24"><path d="M4.25 21.15Q2.825 21.15 1.838 20.15Q0.85 19.15 0.85 17.75V6.25Q0.85 4.85 1.838 3.85Q2.825 2.85 4.25 2.85H19.75Q21.175 2.85 22.163 3.85Q23.15 4.85 23.15 6.25V15.15Q22.375 14.65 21.475 14.375Q20.575 14.1 19.65 14.1Q16.95 14.1 15.075 15.95Q13.2 17.8 13.2 20.5V21.15ZM12 11.3 6.175 7.525Q5.575 7.125 4.912 7.463Q4.25 7.8 4.25 8.575Q4.25 8.95 4.412 9.212Q4.575 9.475 4.825 9.625L11.075 13.7Q11.5 13.975 12 13.975Q12.5 13.975 12.925 13.7L19.175 9.625Q19.4 9.475 19.575 9.212Q19.75 8.95 19.75 8.575Q19.75 7.85 19.113 7.475Q18.475 7.1 17.825 7.525ZM18.875 21.15H16.575Q16 21.15 15.6 20.737Q15.2 20.325 15.2 19.775Q15.2 19.2 15.6 18.8Q16 18.4 16.575 18.4H18.875L18.575 18.125Q18.175 17.725 18.188 17.15Q18.2 16.575 18.6 16.175Q19.025 15.775 19.575 15.787Q20.125 15.8 20.525 16.2L22.925 18.575Q23.4 19.05 23.4 19.763Q23.4 20.475 22.925 20.95L20.525 23.325Q20.125 23.725 19.575 23.738Q19.025 23.75 18.6 23.325Q18.2 22.925 18.2 22.375Q18.2 21.825 18.6 21.4Z"/></svg>
